X: 20
T: HORNPIPE: Rights of Man
C: C: Trad.; S: Various
C: Set Leaders: Olya, Vova
Z: Anton Zille ed., Oleg Naumov arr.; Martial at The Session
N: https://thesession.org/members/26966/sets/92386
R: Hornpipe
M: 4/4
L: 1/8
Q: 1/2=82
K: Emin
|:GA|"Em"BcAB GAFG|"Em"EFGA B2 ef|"C"gfed edBd|"D"cBAG A2GA|
"Em"BcAB GAFG|"Em"EFGA B2ef|"C"gfed "D"Bgfg|"Em"e2 E2 E2:||
|:ga|"Em"babg efga |"Em"babg "A"egfe |"D"d2d^c defg|"D"afdf "Bm"a2 gf|
"Em (C)"edef "(D)"gfga |"Em (G)"bg"(D)"af "D (C)"gfef|"C (Am)"gfed "Bm"Bgfg|"Em"e2 E2 E2:||

